X:420
T: Es gingen drei Engelein (5-15), S. 32
N: P0690
O: Lothringen
S: MERKELBACH-PINCK, Angelika: Verklingende Weisen, Bd 5, Kassel 1962]
R: geistliches, religiöses Lied]
M: 3/4
L: 1/8
K: C
CE | G3cGF | EED2EG | G2F2E2 | D4
GF | E2E2D2 | C2C2EG | G2G2D2 | C4

